src/icons/svgs/24/arrow-rotate-right.svg

<svg width="24" height="24" viewBox="0 0 24 24" fill="none" xmlns="http://www.w3.org/2000/svg">
<path d="M21.9375 3.09839V9.97339C21.9375 10.5449 21.4777 11.0046 20.9062 11.0046H14.0312C13.4641 11.0046 13 10.5449 13 9.97339C13 9.40191 13.4619 8.94214 14.0312 8.94214H18.3496C17.0734 6.46284 14.4824 4.81714 11.625 4.81714C7.41836 4.81714 4.0625 8.173 4.0625 12.3796C4.0625 16.5863 7.45574 19.9421 11.625 19.9421C13.3906 19.9421 15.1093 19.3204 16.4633 18.1912C16.8998 17.8259 17.5508 17.8837 17.9161 18.3227C18.2813 18.7606 18.2222 19.4103 17.7845 19.7755C16.0589 21.2124 13.867 22 11.6185 22C6.31406 22.0003 2 17.6863 2 12.3796C2 7.073 6.31406 2.75894 11.6207 2.75894C15.0518 2.75894 18.1691 4.62636 19.875 7.44683V3.09839C19.875 2.52905 20.3369 2.06714 20.9062 2.06714C21.4756 2.06714 21.9375 2.52905 21.9375 3.09839Z" fill="black"/>
</svg>

<svg width="24" height="24" viewBox="0 0 24 24" xmlns="http://www.w3.org/2000/svg">
    <path d="M21.938 3.098v6.875a1.03 1.03 0 0 1-1.032 1.032h-6.875a1.031 1.031 0 0 1 0-2.063h4.319c-1.277-2.48-3.868-4.125-6.725-4.125a7.524 7.524 0 0 0-7.563 7.563 7.548 7.548 0 0 0 7.563 7.562 7.568 7.568 0 0 0 4.838-1.75 1.031 1.031 0 1 1 1.321 1.584A9.654 9.654 0 0 1 11.62 22C6.313 22 2 17.686 2 12.38c0-5.307 4.314-9.621 9.62-9.621 3.432 0 6.55 1.867 8.255 4.688V3.098a1.031 1.031 0 0 1 2.063 0Z"/>
</svg>
